X:512
T:Reel 512
M:4/4
K:Amix
L:1/8
AF|E>A, (3A,A,A, E,>A, (3A,A,A, |B,D=GD E=GFG|E>=G (3GFG DB,G,B,|DB,GE D2:|DC|B,>B, (3B,B,B, GFGD|E>A (3AGA BAGE|EFGA BAGA|BA=GE DB,|:EFG|A2GA EFGA|B>A (3AGA BAGE|=GAGF GAGE|DB,G,B, DFED|A2AG BGAG|EAAG AFEA|BEGE BEFA|EAAG AB|
